; generated by PrusaSlicer 2.8.0+win64 on 2024-08-30 at 07:52:06 UTC


;
;

;
;
; 

; external perimeters extrusion width = 0.40mm
; perimeters extrusion width = 0.40mm
; infill extrusion width = 0.50mm
; solid infill extrusion width = 0.50mm
; top infill extrusion width = 0.50mm
; support material extrusion width = 0.40mm
; first layer extrusion width = 0.80mm


; printing object BELT GAUGE v1 id:0 copy 0
; stop printing object BELT GAUGE v1 id:0 copy 0

;TYPE:Custom


; Pre-Processed for Cancel-Object support by preprocess_cancellation v0.2.0
; 1 known objects
EXCLUDE_OBJECT_DEFINE NAME=BELT_GAUGE_v1_id_0_copy_0 CENTER=138.016,145.247 POLYGON=[[104.39,139.276],[104.39,160.703],[195.645,160.703],[195.645,139.276]]
SET_PRINT_STATS_INFO TOTAL_LAYER=150

M104 S170 ;начать нагрев хотэнда до 170 градусов
M190 S110;дождаться прогрева стола до температуры, указанной в профиле пластика
G28 ;припарковать все оси
G29 ;построить карту высот стола
M109 S235 ;дождаться прогрева хотэнда до температуры, указанной в профиле пластика
BED_MESH_CALIBRATE PROFILE="default"
G21 ; set units to millimeters
G90 ; use absolute coordinates
M83 ; use relative distances for extrusion
; Filament gcode
SET_PRESSURE_ADVANCE ADVANCE=0.044;Установка LA
M107
;LAYER_CHANGE
;Z:0.3
;HEIGHT:0.3
G1 E-.54 F1800
G1 Z.3 F9000
G1 X100.818 Y136.178
G1 Z.3
G1 E.54 F1800
M204 P6000
;TYPE:Skirt/Brim
;WIDTH:0.8
G1 X106.241 Y133.133 E.57063
G1 X109.589 Y132.258 E.3175
G1 X195.845 Y132.258 E7.91403
G1 X198.141 Y132.655 E.21379
G1 X200.171 Y133.8 E.21384
G1 X201.698 Y135.56 E.21379
G1 X202.546 Y137.731 E.21385
G1 X202.684 Y139.097 E.12597
G1 X202.684 Y160.903 E2.00071
G1 X202.287 Y163.199 E.21379
G1 X201.142 Y165.229 E.21384
G1 X199.381 Y166.757 E.21392
G1 X197.211 Y167.604 E.21373
G1 X195.845 Y167.742 E.12597
G1 X153.709 Y167.605 E3.86602
G1 X151.602 Y167.262 E.19586
G1 X102.027 Y150.944 E4.7886
G1 X99.97 Y149.848 E.21385
G1 X98.4 Y148.126 E.2138
G1 X97.5 Y145.977 E.21376
G1 X97.327 Y144.447 E.14127
G1 X97.327 Y142.141 E.21158
G1 X97.724 Y139.845 E.21379
G1 X98.869 Y137.815 E.21384
G1 X100.772 Y136.217 E.228
G1 X100.772 Y136.217 F9000
G1 X101.178 Y136.819
G1 F1800
G1 X106.601 Y133.775 E.57059
G1 X109.589 Y132.994 E.28336
G1 X195.845 Y132.994 E7.91403
G1 X198.009 Y133.39 E.20185
G1 X199.892 Y134.529 E.20191
G1 X201.249 Y136.261 E.20188
G1 X201.948 Y139.097 E.26799
G1 X201.948 Y160.903 E2.00071
G1 X201.551 Y163.068 E.20195
G1 X200.413 Y164.951 E.20187
G1 X198.68 Y166.308 E.20195
G1 X195.845 Y167.006 E.26788
G1 X153.712 Y166.87 E3.86574
G1 X151.832 Y166.564 E.17476
G1 X102.257 Y150.245 E4.78863
G1 X100.325 Y149.191 E.20192
G1 X98.893 Y147.521 E.20184
G1 X98.062 Y144.447 E.29217
G1 X98.062 Y142.141 E.21158
G1 X98.459 Y139.977 E.20186
G1 X99.598 Y138.094 E.20191
G1 X101.131 Y136.857 E.18073
G1 X101.131 Y136.857 F9000
G1 X101.538 Y137.461
G1 F1800
G1 X106.961 Y134.416 E.57063
G1 X109.589 Y133.729 E.24922
G1 X195.845 Y133.729 E7.91403
G1 X197.869 Y134.125 E.18922
G1 X199.594 Y135.256 E.18925
G1 X200.766 Y136.953 E.18922
G1 X201.213 Y139.097 E.20094
G1 X201.213 Y160.903 E2.00071
G1 X200.816 Y162.927 E.18924
G1 X199.686 Y164.652 E.1892
G1 X197.988 Y165.824 E.1893
G1 X195.845 Y166.271 E.20085
G1 X153.716 Y166.134 E3.86538
G1 X152.062 Y165.865 E.15375
G1 X102.487 Y149.546 E4.78863
G1 X100.689 Y148.537 E.18917
G1 X99.403 Y146.924 E.18927
G1 X98.798 Y144.447 E.23395
G1 X98.798 Y142.141 E.21158
G1 X99.194 Y140.117 E.18922
G1 X100.324 Y138.392 E.1892
G1 X101.49 Y137.497 E.13486
;WIPE_START
G1 F7200
G1 X101.538 Y137.461 E-.01425
G1 X103.468 Y136.377 E-.52575
;WIPE_END
; printing object BELT GAUGE v1 id:0 copy 0
EXCLUDE_OBJECT_START NAME=BELT_GAUGE_v1_id_0_copy_0
G1 X194.166 Y140.757 F9000
G1 E.54 F1800
;TYPE:Perimeter
;WIDTH:0.463959
G1 X194.092 Y140.8 E.00427
G1 X194.166 Y140.843 E.00427
G1 X194.191 Y140.8 E.00248
;WIPE_START
G1 F7200
G1 X194.166 Y140.843 E-.01181
G1 X194.092 Y140.8 E-.02033
G1 X194.166 Y140.757 E-.02033
;WIPE_END
G1 E-.48753 F1800
G1 X193.844 Y143.502 F9000
G1 E.54 F1800
;WIDTH:0.8
G1 X193.973 Y143.351 E.01822
G1 X193.973 Y151.348 E.73373
G1 X193.674 Y150.999 E.04217
G1 X193.086 Y150.705 E.06032
G1 X192.571 Y150.631 E.04774
G1 X175.558 Y150.631 E1.56095
G1 X175.32 Y150.647 E.02189
G1 X174.894 Y150.756 E.04034
G1 X174.693 Y150.691 E.01938
G1 X174.229 Y150.631 E.04293
G1 X157.014 Y150.631 E1.57948
G1 X156.499 Y150.705 E.04774
G1 X155.911 Y150.999 E.06032
G1 X155.612 Y151.348 E.04217
G1 X155.612 Y144.415 E.63611
G1 X155.531 Y144.013 E.03762
G1 X156.47 Y144.013 E.08615
G1 X157.013 Y144.068 E.05008
G1 X192.571 Y144.068 E3.26246
G1 X193.086 Y143.994 E.04774
G1 X193.674 Y143.7 E.06032
G1 X193.805 Y143.547 E.01848
G1 X193.805 Y143.547 F9000
G1 X193.335 Y142.992
G1 F1800
G1 X193.545 Y142.748 E.02954
;WIDTH:0.840462
G1 X193.593 Y142.669 E.00895
;WIDTH:0.880925
G1 X193.641 Y142.591 E.00933
;WIDTH:0.921388
G1 X193.689 Y142.512 E.00988
;WIDTH:0.961851
G1 X193.737 Y142.433 E.01035
G1 X193.749 Y142.229 E.02287
;WIDTH:0.949571
G1 X193.749 Y141.371 E.09473
G1 X193.702 Y141.245 E.01485
;WIDTH:0.899714
G1 X193.655 Y141.12 E.01391
;WIDTH:0.849856
G1 X193.608 Y140.994 E.01317
;WIDTH:0.8
G1 X193.26 Y140.509 E.05477
G1 X193.173 Y140.5 E.00802
;WIDTH:0.756196
G1 X193.087 Y140.492 E.00745
;WIDTH:0.712392
G1 X193.001 Y140.484 E.00698
;WIDTH:0.668589
G1 X192.915 Y140.476 E.00651
;WIDTH:0.624785
G1 X192.829 Y140.467 E.00604
;WIDTH:0.580981
G1 X192.743 Y140.459 E.00557
;WIDTH:0.537178
G1 X192.657 Y140.451 E.00509
;WIDTH:0.493374
G1 X192.571 Y140.443 E.00462
;WIDTH:0.449571
G1 X110.549 Y140.443 E3.94058
G1 X110.549 Y140.057 E.01854
G1 X192.571 Y140.057 E3.94058
;WIDTH:0.493374
G1 X192.669 Y140.079 E.00537
;WIDTH:0.537178
G1 X192.767 Y140.101 E.00592
;WIDTH:0.580981
G1 X192.865 Y140.123 E.00647
;WIDTH:0.624785
G1 X192.964 Y140.145 E.00709
;WIDTH:0.668589
G1 X193.062 Y140.167 E.00757
;WIDTH:0.712392
G1 X193.16 Y140.189 E.00812
;WIDTH:0.756196
G1 X193.258 Y140.211 E.00867
;WIDTH:0.8
G1 X193.356 Y140.233 E.00922
G1 X194.709 Y140.233 E.12414
G1 X194.709 Y140.8 E.05202
;WIDTH:0.849856
G1 X194.684 Y140.99 E.01877
;WIDTH:0.899714
G1 X194.659 Y141.181 E.02007
;WIDTH:0.949571
G1 X194.634 Y141.371 E.02116
;WIDTH:0.961851
G1 X194.628 Y142.511 E.12761
G1 X194.648 Y142.643 E.01494
;WIDTH:0.921388
G1 X194.669 Y142.775 E.01429
;WIDTH:0.880925
G1 X194.689 Y142.907 E.0136
;WIDTH:0.840462
G1 X194.709 Y143.039 E.01292
;WIDTH:0.8
G1 X194.709 Y151.66 E.79098
;WIDTH:0.849857
G1 X194.684 Y151.93 E.02656
;WIDTH:0.899715
G1 X194.659 Y152.2 E.02825
;WIDTH:0.949573
G1 X194.634 Y152.47 E.02994
G1 X194.634 Y159.693 E.79746
G1 X193.749 Y159.693 E.09771
G1 X193.749 Y152.47 E.79746
G1 X193.681 Y152.297 E.02052
;WIDTH:0.899715
G1 X193.613 Y152.124 E.01937
;WIDTH:0.849857
G1 X193.545 Y151.951 E.01821
;WIDTH:0.8
G1 X193.233 Y151.588 E.04392
G1 X192.88 Y151.411 E.03623
G1 X192.571 Y151.367 E.02864
G1 X175.558 Y151.367 E1.56095
G1 X175.28 Y151.403 E.02572
G1 X174.894 Y151.592 E.03943
G1 X174.631 Y151.443 E.02773
G1 X174.229 Y151.367 E.03754
G1 X157.014 Y151.367 E1.57948
G1 X156.705 Y151.411 E.02864
G1 X156.352 Y151.588 E.03623
G1 X156.041 Y151.951 E.04386
;WIDTH:0.849856
G1 X155.973 Y152.124 E.01821
;WIDTH:0.899714
G1 X155.904 Y152.297 E.01941
;WIDTH:0.949571
G1 X155.836 Y152.47 E.02052
G1 X155.836 Y159.556 E.78234
G1 X154.951 Y159.556 E.09771
G1 X154.951 Y152.47 E.78234
G1 X154.926 Y152.2 E.02994
;WIDTH:0.899714
G1 X154.901 Y151.93 E.02825
;WIDTH:0.849856
G1 X154.876 Y151.66 E.02656
;WIDTH:0.8
G1 X154.876 Y144.415 E.66473
G1 X154.791 Y143.991 E.03968
G1 X154.435 Y143.533 E.05322
G1 X154.352 Y143.527 E.00764
;WIDTH:0.756196
G1 X154.269 Y143.521 E.00718
;WIDTH:0.712393
G1 X154.187 Y143.516 E.00664
;WIDTH:0.668589
G1 X154.104 Y143.51 E.00627
;WIDTH:0.624786
G1 X154.021 Y143.504 E.00582
;WIDTH:0.580982
G1 X153.938 Y143.498 E.00536
;WIDTH:0.537179
G1 X153.856 Y143.493 E.00484
;WIDTH:0.493375
G1 X153.773 Y143.487 E.00445
;WIDTH:0.449572
G1 X105.126 Y143.487 E2.33715
G1 X105.126 Y143.102 E.0185
G1 X153.773 Y143.102 E2.33715
;WIDTH:0.493375
G1 X153.866 Y143.124 E.00511
;WIDTH:0.537179
G1 X153.96 Y143.146 E.00569
;WIDTH:0.580982
G1 X154.053 Y143.168 E.00616
;WIDTH:0.624786
G1 X154.146 Y143.19 E.00668
;WIDTH:0.668589
G1 X154.24 Y143.211 E.00726
;WIDTH:0.712393
G1 X154.333 Y143.233 E.00772
;WIDTH:0.756196
G1 X154.427 Y143.255 E.00833
;WIDTH:0.8
G1 X154.52 Y143.277 E.00877
G1 X156.764 Y143.277 E.20589
G1 X156.791 Y143.31 E.00391
G1 X157.013 Y143.332 E.02047
G1 X192.571 Y143.332 E3.26246
G1 X192.88 Y143.288 E.02864
G1 X193.233 Y143.111 E.03623
G1 X193.296 Y143.038 E.00885
G1 X192.826 Y142.482 F9000
;TYPE:External perimeter
G1 F1800
G1 X192.895 Y142.402 E.00969
G1 X192.939 Y142.229 E.01638
G1 X192.917 Y141.245 E.09031
G1 X192.8 Y141.083 E.01833
G1 X192.571 Y141.003 E.02226
G1 X109.989 Y141.003 E7.57694
G1 X109.989 Y139.497 E.13818
G1 X195.445 Y139.497 E7.84063
G1 X195.445 Y140.8 E.11955
G1 X195.445 Y160.503 E1.80776
G1 X192.939 Y160.503 E.22993
G1 X192.939 Y152.47 E.73703
G1 X192.895 Y152.297 E.01638
G1 X192.792 Y152.176 E.01458
G1 X192.571 Y152.103 E.02135
G1 X175.558 Y152.103 E1.56095
G1 X175.331 Y152.181 E.02202
G1 X175.279 Y152.325 E.01405
;WIDTH:0.764316
G1 X175.226 Y152.47 E.01348
;WIDTH:0.728634
G1 X175.226 Y160.497 E.66503
G1 X174.561 Y160.497 E.05509
G1 X174.561 Y152.47 E.66503
;WIDTH:0.764316
G1 X174.509 Y152.325 E.01345
;WIDTH:0.8
G1 X174.456 Y152.181 E.01408
G1 X174.229 Y152.103 E.02202
G1 X157.014 Y152.103 E1.57948
G1 X156.794 Y152.176 E.02127
G1 X156.69 Y152.297 E.01464
G1 X156.647 Y152.47 E.01636
G1 X156.647 Y160.366 E.72446
G1 X154.141 Y160.366 E.22993
G1 X154.141 Y144.871 E1.42167
G1 X154.112 Y144.274 E.05484
G1 X153.993 Y144.121 E.01778
G1 X153.773 Y144.048 E.02127
G1 X104.566 Y144.048 E4.51476
G1 X104.566 Y142.541 E.13827
G1 X156.9 Y142.541 E4.80167
G1 X156.939 Y142.589 E.00567
G1 X157.013 Y142.597 E.00683
G1 X192.571 Y142.597 E3.26246
G1 X192.785 Y142.525 E.02072
;WIPE_START
G1 F7200
G1 X192.826 Y142.482 E-.01411
G1 X192.895 Y142.402 E-.02509
G1 X192.939 Y142.229 E-.0424
G1 X192.917 Y141.245 E-.23376
G1 X192.8 Y141.083 E-.04746
G1 X192.571 Y141.003 E-.05761
G1 X192.068 Y141.003 E-.11957
;WIPE_END
G1 X193.753 Y145.375 F9000
G1 E.54 F1800
;TYPE:Solid infill
;WIDTH:0.804537
G1 X192.946 Y144.568 E.10536
G1 X192.584 Y144.619 E.03375
G1 X191.951 Y144.619 E.05844
G1 X193.422 Y146.09 E.19205
G1 X193.422 Y147.137 E.09666
G1 X190.904 Y144.619 E.32874
G1 X189.857 Y144.619 E.09666
G1 X193.422 Y148.184 E.46543
G1 X193.422 Y149.231 E.09666
G1 X188.811 Y144.619 E.60205
G1 X187.764 Y144.619 E.09666
G1 X193.392 Y150.248 E.73483
G1 X193.244 Y150.174 E.01528
G1 X192.584 Y150.08 E.06154
G1 X192.177 Y150.08 E.03757
G1 X186.717 Y144.619 E.7129
G1 X185.67 Y144.619 E.09666
G1 X191.13 Y150.08 E.7129
G1 X190.084 Y150.08 E.09656
G1 X184.624 Y144.619 E.7129
G1 X183.577 Y144.619 E.09666
G1 X189.037 Y150.08 E.7129
G1 X187.99 Y150.08 E.09666
G1 X182.53 Y144.619 E.7129
G1 X181.483 Y144.619 E.09666
G1 X186.944 Y150.08 E.71296
G1 X185.897 Y150.08 E.09666
G1 X180.437 Y144.619 E.7129
G1 X179.39 Y144.619 E.09666
G1 X184.85 Y150.08 E.7129
G1 X183.803 Y150.08 E.09666
G1 X178.343 Y144.619 E.7129
G1 X177.296 Y144.619 E.09666
G1 X182.757 Y150.08 E.71296
G1 X181.71 Y150.08 E.09666
G1 X176.25 Y144.619 E.7129
G1 X175.203 Y144.619 E.09666
G1 X180.663 Y150.08 E.7129
G1 X179.616 Y150.08 E.09666
G1 X174.156 Y144.619 E.7129
G1 X173.11 Y144.619 E.09656
G1 X178.57 Y150.08 E.7129
G1 X177.523 Y150.08 E.09666
G1 X172.063 Y144.619 E.7129
G1 X171.016 Y144.619 E.09666
G1 X176.476 Y150.08 E.7129
G1 X175.438 Y150.088 E.09583
G1 X169.969 Y144.619 E.71401
G1 X168.923 Y144.619 E.09656
G1 X174.395 Y150.092 E.71446
G1 X173.336 Y150.08 E.09777
G1 X167.876 Y144.619 E.7129
G1 X166.829 Y144.619 E.09666
G1 X172.289 Y150.08 E.7129
G1 X171.242 Y150.08 E.09666
G1 X165.782 Y144.619 E.7129
G1 X164.736 Y144.619 E.09656
G1 X170.196 Y150.08 E.7129
G1 X169.149 Y150.08 E.09666
G1 X163.689 Y144.619 E.7129
G1 X162.642 Y144.619 E.09666
G1 X168.102 Y150.08 E.7129
G1 X167.055 Y150.08 E.09666
G1 X161.595 Y144.619 E.7129
G1 X160.549 Y144.619 E.09656
G1 X166.009 Y150.08 E.7129
G1 X164.962 Y150.08 E.09666
G1 X159.502 Y144.619 E.7129
G1 X158.455 Y144.619 E.09666
G1 X163.915 Y150.08 E.7129
G1 X162.869 Y150.08 E.09656
G1 X157.408 Y144.619 E.71296
G1 X157.001 Y144.619 E.03757
G1 X156.55 Y144.564 E.04194
G1 X156.307 Y144.564 E.02243
G1 X161.822 Y150.08 E.72008
G1 X160.775 Y150.08 E.09666
G1 X156.158 Y145.462 E.60284
G1 X156.159 Y146.51 E.09675
G1 X159.728 Y150.08 E.46602
G1 X158.682 Y150.08 E.09656
G1 X156.16 Y147.558 E.32926
G1 X156.161 Y148.606 E.09675
G1 X157.635 Y150.08 E.19244
G1 X157.001 Y150.08 E.05853
G1 X156.64 Y150.131 E.03366
G1 X155.831 Y149.323 E.10555
M106 S127.5
;LAYER_CHANGE
;Z:0.55
;HEIGHT:0.25
G92 E0
G1 Z.55 F9000
SET_PRINT_STATS_INFO CURRENT_LAYER=2
G1 E-.54 F1800
G1 X155.831 Y149.323 Z.55 F9000
G1 X193.166 Y142.822
G1 E.54 F1800
;TYPE:Perimeter
;WIDTH:0.399999
G1 F8895.946
G1 X193.33 Y142.631 E.00906
G1 F8795.336
G1 X193.431 Y142.223 E.01513
G1 F8655.978
G1 X193.431 Y141.376 E.03049
G1 F8408.78
G1 X193.379 Y141.079 E.01085
G1 F8199.479
G1 X193.105 Y140.699 E.01686
;WIDTH:0.443563
G1 F7926.779
G1 X192.835 Y140.583 E.01191
;WIDTH:0.487126
G1 F7764.191
G1 X192.566 Y140.467 E.0132
G1 F9000
G1 X110.25 Y140.467 E3.70871
G1 F7566.497
G1 X110.25 Y140.033 E.01955
G1 F9000
G1 X192.566 Y140.033 E3.70871
G1 F7399.854
G1 X192.959 Y140.011 E.01773
;WIDTH:0.443563
G1 F7436.173
G1 X193.353 Y139.99 E.01599
;WIDTH:0.399999
G1 F7489.801
G1 X194.952 Y139.99 E.05756
G1 X194.952 Y140.801 E.0292
G1 F9000
G1 X194.952 Y160.01 E.6915
G1 F7423.19
G1 X193.431 Y160.01 E.05475
G1 F7547.959
G1 X193.431 Y152.476 E.27121
G1 F7530.899
G1 X193.33 Y152.068 E.01513
G1 F7574.106
G1 X193.085 Y151.783 E.01353
G1 F7631.967
G1 X192.808 Y151.644 E.01116
G1 F7682.917
G1 X192.566 Y151.61 E.0088
G1 F9000
G1 X176.017 Y151.61 E.59574
G1 X175.666 Y151.684 E.01291
G1 X175.324 Y151.955 E.01571
;WIDTH:0.442006
G1 X175.217 Y152.216 E.01139
;WIDTH:0.484012
G1 X175.109 Y152.476 E.01259
G1 X175.109 Y159.44 E.31151
G1 F8001.142
G1 X175.109 Y159.927 E.02178
G1 F7871.28
G1 X174.678 Y159.927 E.01928
G1 F8001.142
G1 X174.678 Y159.44 E.02178
G1 F8990.357
G1 X174.678 Y152.476 E.31151
G1 F9000
G1 X174.571 Y152.216 E.01258
;WIDTH:0.442006
G1 X174.463 Y151.955 E.0114
;WIDTH:0.399999
G1 X174.122 Y151.684 E.01568
G1 X173.771 Y151.61 E.01291
G1 X157.02 Y151.61 E.60302
G1 X156.777 Y151.644 E.00883
G1 X156.5 Y151.783 E.01116
G1 X156.256 Y152.068 E.01351
G1 X156.154 Y152.476 E.01514
G1 X156.154 Y159.874 E.26632
G1 F7424.874
G1 X154.633 Y159.874 E.05475
G1 F9000
G1 X154.633 Y144.421 E.55629
G1 X154.567 Y144.088 E.01222
G1 X154.287 Y143.728 E.01642
;WIDTH:0.443563
G1 X154.027 Y143.62 E.01141
;WIDTH:0.487127
G1 X153.767 Y143.511 E.0127
G1 X138.269 Y143.511 E.69826
G1 X138.24 Y143.415 E.00452
G1 X137.862 Y143.23 E.01896
;WIDTH:0.453866
G1 X137.484 Y143.044 E.01752
G1 X137.952 Y143.061 E.01948
;WIDTH:0.487127
G1 X138.42 Y143.078 E.0211
G1 X153.767 Y143.078 E.69145
G1 X154.143 Y143.056 E.01697
;WIDTH:0.443563
G1 X154.518 Y143.034 E.01522
;WIDTH:0.399999
G1 X156.814 Y143.034 E.08265
G1 X156.844 Y143.072 E.00174
G1 X157.018 Y143.089 E.00629
G1 X192.566 Y143.089 E1.27969
G1 X192.808 Y143.055 E.0088
G1 F8961.118
G1 X193.085 Y142.916 E.01116
G1 F8895.946
G1 X193.127 Y142.868 E.0023
;WIPE_START
G1 F7200
G1 X193.166 Y142.822 E-.01432
G1 X193.33 Y142.631 E-.05979
G1 X193.431 Y142.223 E-.09982
G1 X193.431 Y141.376 E-.20116
G1 X193.379 Y141.079 E-.07161
G1 X193.149 Y140.76 E-.0933
;WIPE_END
G1 X137.234 Y143.051 F9000
G1 E.54 F1800
;WIDTH:0.460504
G1 F9000
G1 X136.932 Y143.233 E.01491
;WIDTH:0.487126
G1 X136.63 Y143.415 E.01589
G1 X136.601 Y143.511 E.00452
G1 F8959.693
G1 X105.127 Y143.511 E1.41805
G1 F7547.912
G1 X105.127 Y143.078 E.01951
G1 F8888.963
G1 X136.45 Y143.078 E1.41125
G1 F9000
G1 X136.842 Y143.064 E.01767
;WIDTH:0.460504
G1 X137.174 Y143.053 E.01405
G1 X137.174 Y143.053
G1 X137.234 Y143.051
;WIDTH:0.433882
G1 X137.484 Y143.044 E.00988
;WIPE_START
G1 F7200
G1 X137.234 Y143.051 E-.0594
;WIPE_END
G1 E-.4806 F1800
G1 X192.926 Y142.582 F9000
