; generated by PrusaSlicer 2.7.1+win64 on 2023-12-23 at 13:59:04 UTC


;
;

;
;
; 

; external perimeters extrusion width = 0.40mm
; perimeters extrusion width = 0.40mm
; infill extrusion width = 0.50mm
; solid infill extrusion width = 0.50mm
; top infill extrusion width = 0.50mm
; support material extrusion width = 0.40mm
; first layer extrusion width = 0.80mm


; printing object Calibration_OctogonV2 (1).stl id:0 copy 0
; stop printing object Calibration_OctogonV2 (1).stl id:0 copy 0

;TYPE:Custom
SET_PRINT_STATS_INFO TOTAL_LAYER=10


; Pre-Processed for Cancel-Object support by preprocess_cancellation v0.2.0
; 1 known objects
EXCLUDE_OBJECT_DEFINE NAME=Calibration_OctogonV2_1_stl_id_0_copy_0 CENTER=147.240,152.740 POLYGON=[[98.2,98.2],[98.2,201.8],[201.8,201.8],[201.8,98.2]]

M104 S170 ;начать нагрев хотэнда до 170 градусов
M190 S80;дождаться прогрева стола до температуры, указанной в профиле пластика
G28 ;припарковать все оси
G29 ;построить карту высот стола
M109 S230 ;дождаться прогрева хотэнда до температуры, указанной в профиле пластика
BED_MESH_CALIBRATE PROFILE="default"
G21 ; set units to millimeters
G90 ; use absolute coordinates
M83 ; use relative distances for extrusion
; Filament gcode
SET_PRESSURE_ADVANCE ADVANCE=0.037;Установка LA
M107
;LAYER_CHANGE
;Z:0.35
;HEIGHT:0.35
G1 Z.35 F9000
SET_PRINT_STATS_INFO CURRENT_LAYER=1
G1 E-.8 F1800
G1 X108.387 Y108.387 F9000
G1 Z.35
G1 E.8 F1800
M204 S7000
;TYPE:Skirt/Brim
;WIDTH:0.8
G1 X123.522 Y93.252 E2.09969
G1 X125.468 Y91.868 E.23425
G1 X128.596 Y91.15 E.31483
G1 X171.404 Y91.15 E4.19935
G1 X173.759 Y91.548 E.23429
G1 X176.478 Y93.252 E.31478
G1 X206.748 Y123.522 E4.19937
G1 X208.132 Y125.468 E.23425
G1 X208.85 Y128.596 E.31483
G1 X208.85 Y171.404 E4.19935
G1 X208.452 Y173.759 E.23429
G1 X206.748 Y176.478 E.31478
G1 X176.478 Y206.748 E4.19937
G1 X174.532 Y208.132 E.23425
G1 X171.404 Y208.85 E.31483
G1 X128.596 Y208.85 E4.19935
G1 X126.241 Y208.452 E.23429
G1 X123.522 Y206.748 E.31478
G1 X93.252 Y176.478 E4.19937
G1 X91.868 Y174.532 E.23425
G1 X91.15 Y171.404 E.31483
G1 X91.15 Y128.596 E4.19935
G1 X91.548 Y126.241 E.23429
G1 X93.252 Y123.522 E.31478
G1 X108.345 Y108.429 E2.09386
G1 X108.857 Y108.942 F9000
G1 F1800
G1 X124.035 Y93.764 E2.10565
G1 X125.891 Y92.47 E.22195
G1 X128.596 Y91.875 E.2717
G1 X171.404 Y91.875 E4.19935
G1 X173.632 Y92.272 E.222
G1 X175.965 Y93.764 E.27166
G1 X206.236 Y124.035 E4.19951
G1 X207.53 Y125.891 E.22195
G1 X208.125 Y128.596 E.2717
G1 X208.125 Y171.404 E4.19935
G1 X207.728 Y173.632 E.222
G1 X206.236 Y175.965 E.27166
G1 X175.965 Y206.236 E4.19951
G1 X174.109 Y207.53 E.22195
G1 X171.404 Y208.125 E.2717
G1 X128.596 Y208.125 E4.19935
G1 X126.368 Y207.728 E.222
G1 X124.035 Y206.236 E.27166
G1 X93.764 Y175.965 E4.19951
G1 X92.47 Y174.109 E.22195
G1 X91.875 Y171.404 E.2717
G1 X91.875 Y128.596 E4.19935
G1 X92.272 Y126.368 E.222
G1 X93.764 Y124.035 E.27166
G1 X108.815 Y108.984 E2.08803
G1 X109.327 Y109.497 F9000
G1 F1800
G1 X124.547 Y94.277 E2.11148
G1 X126.308 Y93.077 E.20904
G1 X128.596 Y92.6 E.22927
G1 X171.404 Y92.6 E4.19935
G1 X173.498 Y92.997 E.20907
G1 X175.453 Y94.277 E.22923
G1 X205.723 Y124.547 E4.19937
G1 X206.923 Y126.308 E.20904
G1 X207.4 Y128.596 E.22927
G1 X207.4 Y171.404 E4.19935
G1 X207.003 Y173.498 E.20907
G1 X205.723 Y175.453 E.22923
G1 X175.453 Y205.723 E4.19937
G1 X173.692 Y206.923 E.20904
G1 X171.404 Y207.4 E.22927
G1 X128.596 Y207.4 E4.19935
G1 X126.502 Y207.003 E.20907
G1 X124.547 Y205.723 E.22923
G1 X94.277 Y175.453 E4.19937
G1 X93.077 Y173.692 E.20904
G1 X92.6 Y171.404 E.22927
G1 X92.6 Y128.596 E4.19935
G1 X92.997 Y126.502 E.20907
G1 X94.277 Y124.547 E.22923
G1 X109.285 Y109.539 E2.08207
; printing object Calibration_OctogonV2 (1).stl id:0 copy 0
EXCLUDE_OBJECT_START NAME=Calibration_OctogonV2_1_stl_id_0_copy_0
G1 E-.8
G1 X109.285 Y109.539 F9000
G1 X150.876 Y102.092
G1 E.8 F1800
;TYPE:Perimeter
;WIDTH:0.8
G1 X151.249 Y101.964 E.03868
G1 X151.682 Y101.644 E.05282
G1 X153.151 Y100.175 E.20379
G1 X170.638 Y100.175 E1.71543
G1 X183.004 Y112.54 E1.71547
G1 X183.004 Y114.618 E.20385
G1 X183.062 Y115.074 E.04509
G1 X183.259 Y115.546 E.05017
G1 X183.535 Y115.899 E.04396
G1 X184.101 Y116.465 E.07852
G1 X184.454 Y116.741 E.04396
G1 X184.91 Y116.934 E.04857
G1 X185.382 Y116.996 E.0467
G1 X187.46 Y116.996 E.20385
G1 X199.825 Y129.362 E1.71547
G1 X199.825 Y146.849 E1.71543
G1 X198.657 Y148.017 E.16204
G1 X198.184 Y148.518 E.06759
G1 X197.922 Y149.015 E.05511
G1 X197.825 Y149.6 E.05817
G1 X197.852 Y150.713 E.10921
G1 X198.036 Y151.249 E.05559
G1 X198.356 Y151.682 E.05282
G1 X199.825 Y153.151 E.20379
G1 X199.825 Y154.803 E.16206
G1 X199.825 Y170.638 E1.55337
G1 X187.46 Y183.004 E1.71547
G1 X185.382 Y183.004 E.20385
G1 X184.926 Y183.062 E.04509
G1 X184.454 Y183.259 E.05017
G1 X184.101 Y183.535 E.04396
G1 X183.535 Y184.101 E.07852
G1 X183.259 Y184.454 E.04396
G1 X183.066 Y184.91 E.04857
G1 X183.004 Y185.382 E.0467
G1 X183.004 Y187.46 E.20385
G1 X170.638 Y199.825 E1.71547
G1 X153.151 Y199.825 E1.71543
G1 X151.983 Y198.657 E.16204
G1 X151.482 Y198.184 E.06759
G1 X150.985 Y197.922 E.05511
G1 X150.4 Y197.825 E.05817
G1 X149.287 Y197.852 E.10921
G1 X148.751 Y198.036 E.05559
G1 X148.318 Y198.356 E.05282
G1 X146.849 Y199.825 E.20379
G1 X129.362 Y199.825 E1.71543
G1 X116.996 Y187.46 E1.71547
G1 X116.996 Y185.382 E.20385
G1 X116.938 Y184.926 E.04509
G1 X116.741 Y184.454 E.05017
G1 X116.465 Y184.101 E.04396
G1 X115.899 Y183.535 E.07852
G1 X115.546 Y183.259 E.04396
G1 X115.09 Y183.066 E.04857
G1 X114.618 Y183.004 E.0467
G1 X112.54 Y183.004 E.20385
G1 X100.175 Y170.638 E1.71547
G1 X100.175 Y153.151 E1.71543
G1 X101.343 Y151.983 E.16204
G1 X101.816 Y151.482 E.06759
G1 X102.078 Y150.985 E.05511
G1 X102.175 Y150.4 E.05817
G1 X102.148 Y149.287 E.10921
G1 X101.964 Y148.751 E.05559
G1 X101.644 Y148.318 E.05282
G1 X100.175 Y146.849 E.20379
G1 X100.175 Y129.362 E1.71543
G1 X112.54 Y116.996 E1.71547
G1 X114.618 Y116.996 E.20385
G1 X115.074 Y116.938 E.04509
G1 X115.546 Y116.741 E.05017
G1 X115.899 Y116.465 E.04396
G1 X116.465 Y115.899 E.07852
G1 X116.741 Y115.546 E.04396
G1 X116.934 Y115.09 E.04857
G1 X116.996 Y114.618 E.0467
G1 X116.996 Y112.54 E.20385
G1 X129.362 Y100.175 E1.71547
G1 X146.849 Y100.175 E1.71543
G1 X148.017 Y101.343 E.16204
G1 X148.518 Y101.816 E.06759
G1 X149.015 Y102.078 E.05511
G1 X149.6 Y102.175 E.05817
G1 X150.713 Y102.148 E.10921
G1 X150.819 Y102.111 E.01101
G1 X150.663 Y101.407 F9000
G1 F1800
G1 X150.909 Y101.323 E.0255
G1 X151.169 Y101.131 E.03171
G1 X152.851 Y99.45 E.23328
G1 X170.939 Y99.45 E1.77438
G1 X183.729 Y112.24 E1.77436
G1 X183.738 Y114.757 E.24691
G1 X183.815 Y115.043 E.02905
G1 X183.961 Y115.29 E.02815
G1 X184.33 Y115.67 E.05196
G1 X184.825 Y116.118 E.06549
G1 X185.099 Y116.234 E.02919
G1 X185.382 Y116.271 E.028
G1 X187.76 Y116.271 E.23328
G1 X200.55 Y129.061 E1.77436
G1 X200.55 Y147.149 E1.77438
G1 X198.765 Y148.951 E.24882
G1 X198.608 Y149.249 E.03304
G1 X198.55 Y149.6 E.0349
G1 X198.565 Y150.579 E.09605
G1 X198.677 Y150.909 E.03419
G1 X198.869 Y151.169 E.03171
G1 X200.55 Y152.851 E.23328
G1 X200.55 Y154.803 E.19149
G1 X200.55 Y170.939 E1.5829
G1 X187.76 Y183.729 E1.77436
G1 X185.243 Y183.738 E.24691
G1 X184.957 Y183.815 E.02905
G1 X184.71 Y183.961 E.02815
G1 X184.33 Y184.33 E.05196
G1 X183.882 Y184.825 E.06549
G1 X183.766 Y185.099 E.02919
G1 X183.729 Y185.382 E.028
G1 X183.729 Y187.76 E.23328
G1 X170.939 Y200.55 E1.77436
G1 X152.851 Y200.55 E1.77438
G1 X151.049 Y198.765 E.24882
G1 X150.751 Y198.608 E.03304
G1 X150.4 Y198.55 E.0349
G1 X149.421 Y198.565 E.09605
G1 X149.091 Y198.677 E.03419
G1 X148.831 Y198.869 E.03171
G1 X147.149 Y200.55 E.23328
G1 X129.061 Y200.55 E1.77438
G1 X116.271 Y187.76 E1.77436
G1 X116.262 Y185.243 E.24691
G1 X116.185 Y184.957 E.02905
G1 X116.039 Y184.71 E.02815
G1 X115.67 Y184.33 E.05196
G1 X115.175 Y183.882 E.06549
G1 X114.901 Y183.766 E.02919
G1 X114.618 Y183.729 E.028
G1 X112.24 Y183.729 E.23328
G1 X99.45 Y170.939 E1.77436
G1 X99.45 Y152.851 E1.77438
G1 X101.235 Y151.049 E.24882
G1 X101.392 Y150.751 E.03304
G1 X101.45 Y150.4 E.0349
G1 X101.435 Y149.421 E.09605
G1 X101.323 Y149.091 E.03419
G1 X101.131 Y148.831 E.03171
G1 X99.45 Y147.149 E.23328
G1 X99.45 Y129.061 E1.77438
G1 X112.24 Y116.271 E1.77436
G1 X114.757 Y116.262 E.24691
G1 X115.043 Y116.185 E.02905
G1 X115.29 Y116.039 E.02815
G1 X115.67 Y115.67 E.05196
G1 X116.118 Y115.175 E.06549
G1 X116.234 Y114.901 E.02919
G1 X116.271 Y114.618 E.028
G1 X116.271 Y112.24 E.23328
G1 X129.061 Y99.45 E1.77436
G1 X147.149 Y99.45 E1.77438
G1 X148.951 Y101.235 E.24882
G1 X149.249 Y101.392 E.03304
G1 X149.6 Y101.45 E.0349
G1 X150.579 Y101.435 E.09605
G1 X150.606 Y101.426 E.00279
G1 X150.386 Y100.72 F9000
;TYPE:External perimeter
G1 F1800
G1 X150.46 Y100.72 E.00726
G1 X150.656 Y100.619 E.02163
G1 X152.55 Y98.725 E.26276
G1 X171.239 Y98.725 E1.83334
G1 X184.454 Y111.94 E1.83332
G1 X184.465 Y114.709 E.27163
G1 X184.56 Y114.874 E.01868
G1 X185.196 Y115.495 E.0872
G1 X185.382 Y115.546 E.01892
G1 X188.06 Y115.546 E.2627
G1 X201.275 Y128.761 E1.83332
G1 X201.275 Y147.45 E1.83334
G1 X199.347 Y149.383 E.26782
G1 X199.275 Y149.6 E.02243
G1 X199.28 Y150.46 E.08436
G1 X199.381 Y150.656 E.02163
G1 X201.275 Y152.55 E.26276
G1 X201.275 Y154.803 E.22101
G1 X201.275 Y171.239 E1.61233
G1 X188.06 Y184.454 E1.83332
G1 X185.291 Y184.465 E.27163
G1 X185.126 Y184.56 E.01868
G1 X184.505 Y185.196 E.0872
G1 X184.454 Y185.382 E.01892
G1 X184.454 Y188.06 E.2627
G1 X171.239 Y201.275 E1.83332
G1 X152.55 Y201.275 E1.83334
G1 X150.617 Y199.347 E.26782
G1 X150.4 Y199.275 E.02243
G1 X149.54 Y199.28 E.08436
G1 X149.344 Y199.381 E.02163
G1 X147.45 Y201.275 E.26276
G1 X128.761 Y201.275 E1.83334
G1 X115.546 Y188.06 E1.83332
G1 X115.535 Y185.291 E.27163
G1 X115.44 Y185.126 E.01868
G1 X114.804 Y184.505 E.0872
G1 X114.618 Y184.454 E.01892
G1 X111.94 Y184.454 E.2627
G1 X98.725 Y171.239 E1.83332
G1 X98.725 Y152.55 E1.83334
G1 X100.653 Y150.617 E.26782
G1 X100.725 Y150.4 E.02243
G1 X100.72 Y149.54 E.08436
G1 X100.619 Y149.344 E.02163
G1 X98.725 Y147.45 E.26276
G1 X98.725 Y128.761 E1.83334
G1 X111.94 Y115.546 E1.83332
G1 X114.709 Y115.535 E.27163
G1 X114.874 Y115.44 E.01868
G1 X115.495 Y114.804 E.0872
G1 X115.546 Y114.618 E.01892
G1 X115.546 Y111.94 E.2627
G1 X128.761 Y98.725 E1.83332
G1 X147.45 Y98.725 E1.83334
G1 X149.383 Y100.653 E.26782
G1 X149.6 Y100.725 E.02243
G1 X150.326 Y100.721 E.07122
G1 X150.693 Y100.561 F9000
G1 E-.8 F1800
G1 X181.492 Y123.424 F9000
G1 E.8 F1800
;TYPE:Perimeter
G1 X181.635 Y123.395 E.01431
G1 X182.084 Y123.405 E.04406
G1 X182.574 Y123.55 E.05013
G1 X182.964 Y123.793 E.04508
G1 X183.101 Y123.917 E.01813
G1 X191.319 Y132.134 E1.14002
G1 X191.609 Y132.513 E.04681
G1 X191.787 Y132.944 E.04574
G1 X191.85 Y133.416 E.04671
G1 X191.85 Y166.584 E3.25369
G1 X191.787 Y167.056 E.04671
G1 X191.609 Y167.487 E.04574
G1 X191.319 Y167.866 E.04681
G1 X183.101 Y176.083 E1.14002
G1 X182.776 Y176.341 E.04071
G1 X182.276 Y176.556 E.05339
G1 X181.85 Y176.614 E.04217
G1 X181.515 Y176.588 E.03296
G1 X181.04 Y176.438 E.04886
G1 X180.655 Y176.19 E.04492
G1 X180.538 Y176.083 E.01555
G1 X155.737 Y151.281 E3.44072
G1 X155.397 Y150.81 E.05698
G1 X155.241 Y150.355 E.04718
G1 X155.213 Y149.836 E.05099
G1 X155.299 Y149.427 E.041
G1 X155.543 Y148.947 E.05282
G1 X155.737 Y148.719 E.02937
G1 X180.538 Y123.917 E3.44072
G1 X180.782 Y123.713 E.0312
G1 X181.29 Y123.465 E.05545
G1 X181.433 Y123.436 E.01431
G1 X181.601 Y124.147 F9000
G1 F1800
G1 X181.709 Y124.116 E.01102
G1 X182.122 Y124.154 E.04069
G1 X182.272 Y124.209 E.01567
G1 X182.589 Y124.429 E.03785
G1 X190.806 Y132.647 E1.14002
G1 X190.98 Y132.874 E.02806
G1 X191.109 Y133.228 E.03696
G1 X191.125 Y133.416 E.01851
G1 X191.125 Y166.584 E3.25369
G1 X191.087 Y166.867 E.02801
G1 X190.928 Y167.209 E.037
G1 X190.806 Y167.353 E.01851
G1 X182.589 Y175.571 E1.14002
G1 X182.263 Y175.795 E.0388
G1 X181.978 Y175.878 E.02912
G1 X181.637 Y175.874 E.03345
G1 X181.352 Y175.783 E.02935
G1 X181.051 Y175.571 E.03612
G1 X156.249 Y150.769 E3.44079
G1 X156.045 Y150.486 E.03422
G1 X155.935 Y150.098 E.03956
G1 X155.952 Y149.787 E.03055
G1 X156.045 Y149.514 E.02829
G1 X156.249 Y149.231 E.03422
G1 X181.051 Y124.429 E3.44079
G1 X181.352 Y124.217 E.03612
G1 X181.543 Y124.163 E.01947
G1 X181.759 Y124.841 F9000
;TYPE:External perimeter
G1 F1800
G1 X181.971 Y124.869 E.02098
G1 X182.076 Y124.942 E.01254
G1 X190.294 Y133.16 E1.14009
G1 X190.397 Y133.368 E.02277
G1 X190.4 Y166.584 E3.2584
G1 X190.325 Y166.804 E.0228
G1 X190.294 Y166.84 E.00466
G1 X182.076 Y175.058 E1.14009
G1 X181.873 Y175.16 E.02229
G1 X181.664 Y175.129 E.02073
G1 X181.564 Y175.058 E.01203
G1 X156.762 Y150.256 E3.44079
G1 X156.663 Y150.071 E.02058
G1 X156.674 Y149.885 E.01828
G1 X156.762 Y149.744 E.0163
G1 X181.564 Y124.942 E3.44079
G1 X181.706 Y124.868 E.01571
G1 X182.091 Y124.976 F9000
G1 E-.8 F1800
G1 X118.505 Y176.576 F9000
G1 E.8 F1800
;TYPE:Perimeter
G1 X118.365 Y176.605 E.01403
G1 X117.916 Y176.595 E.04406
G1 X117.426 Y176.45 E.05013
G1 X117.036 Y176.207 E.04508
G1 X108.681 Y167.866 E1.15812
G1 X108.391 Y167.487 E.04681
G1 X108.213 Y167.056 E.04574
G1 X108.15 Y166.584 E.04671
G1 X108.15 Y133.416 E3.25369
G1 X108.213 Y132.944 E.04671
G1 X108.391 Y132.513 E.04574
G1 X108.681 Y132.134 E.04681
G1 X116.899 Y123.917 E1.14002
G1 X117.224 Y123.659 E.04071
G1 X117.724 Y123.444 E.05339
G1 X118.15 Y123.386 E.04217
G1 X118.485 Y123.412 E.03296
G1 X118.96 Y123.562 E.04886
G1 X119.218 Y123.713 E.02933
G1 X119.462 Y123.917 E.0312
G1 X144.263 Y148.719 E3.44072
G1 X144.457 Y148.947 E.02937
G1 X144.701 Y149.427 E.05282
G1 X144.787 Y149.836 E.041
G1 X144.759 Y150.355 E.05099
G1 X144.603 Y150.81 E.04718
G1 X144.263 Y151.281 E.05698
G1 X119.462 Y176.083 E3.44072
G1 X119.218 Y176.287 E.0312
G1 X118.71 Y176.535 E.05545
G1 X118.564 Y176.564 E.0146
G1 X118.393 Y175.855 F9000
G1 F1800
G1 X118.291 Y175.884 E.0104
G1 X117.878 Y175.846 E.04069
G1 X117.607 Y175.726 E.02907
G1 X117.411 Y175.571 E.02451
G1 X109.194 Y167.353 E1.14002
G1 X109.02 Y167.126 E.02806
G1 X108.891 Y166.772 E.03696
G1 X108.875 Y166.584 E.01851
G1 X108.875 Y133.416 E3.25369
G1 X108.913 Y133.133 E.02801
G1 X109.072 Y132.791 E.037
G1 X109.194 Y132.647 E.01851
G1 X117.411 Y124.429 E1.14002
G1 X117.737 Y124.205 E.0388
G1 X118.022 Y124.122 E.02912
G1 X118.363 Y124.126 E.03345
G1 X118.648 Y124.217 E.02935
G1 X118.949 Y124.429 E.03612
G1 X143.751 Y149.231 E3.44079
G1 X143.867 Y149.368 E.01761
G1 X144.014 Y149.656 E.03172
G1 X144.069 Y150 E.03417
G1 X144.014 Y150.344 E.03417
G1 X143.867 Y150.632 E.03172
G1 X143.751 Y150.769 E.01761
G1 X118.949 Y175.571 E3.44079
G1 X118.648 Y175.783 E.03612
G1 X118.45 Y175.839 E.02019
G1 X118.241 Y175.159 F9000
;TYPE:External perimeter
G1 F1800
G1 X118.029 Y175.131 E.02098
G1 X117.924 Y175.058 E.01254
G1 X109.706 Y166.84 E1.14009
G1 X109.603 Y166.632 E.02277
G1 X109.6 Y166.584 E.00472
G1 X109.6 Y133.416 E3.25369
G1 X109.675 Y133.196 E.0228
G1 X109.706 Y133.16 E.00466
G1 X117.924 Y124.942 E1.14009
G1 X118.127 Y124.84 E.02229
G1 X118.336 Y124.871 E.02073
G1 X118.436 Y124.942 E.01203
G1 X143.277 Y149.789 E3.44662
G1 X143.344 Y150 E.02172
G1 X143.277 Y150.211 E.02172
G1 X143.238 Y150.256 E.00584
G1 X118.436 Y175.058 E3.44079
G1 X118.294 Y175.132 E.01571
G1 X117.909 Y175.024 F9000
G1 E-.8 F1800
G1 X149.435 Y144.687 F9000
G1 E.8 F1800
;TYPE:Perimeter
G1 X149.19 Y144.603 E.02541
G1 X148.835 Y144.37 E.04166
G1 X148.719 Y144.263 E.01548
G1 X123.917 Y119.462 E3.44072
G1 X123.713 Y119.218 E.0312
G1 X123.465 Y118.71 E.05545
G1 X123.412 Y118.485 E.02268
G1 X123.386 Y118.15 E.03296
G1 X123.458 Y117.676 E.04703
G1 X123.659 Y117.224 E.04853
G1 X123.917 Y116.899 E.04071
G1 X132.134 Y108.681 E1.14002
G1 X132.513 Y108.391 E.04681
G1 X132.944 Y108.213 E.04574
G1 X133.416 Y108.15 E.04671
G1 X166.584 Y108.15 E3.25369
G1 X167.056 Y108.213 E.04671
G1 X167.487 Y108.391 E.04574
G1 X167.866 Y108.681 E.04681
G1 X176.083 Y116.899 E1.14002
G1 X176.341 Y117.224 E.04071
G1 X176.556 Y117.724 E.05339
G1 X176.614 Y118.15 E.04217
G1 X176.588 Y118.485 E.03296
G1 X176.438 Y118.96 E.04886
G1 X176.287 Y119.218 E.02933
G1 X176.083 Y119.462 E.0312
